X: 3
T: Mountain Road, The
C: Michael Gorman (1895-1970)
M: C|
L: 1/8
R: reel
K: Dmaj
|: "D"F2A-F BFAF | F2A-F "A"E-FD-E | "D"F2A-F BFAF | "A"G2F-G "D"E-FD-E |
   "D"F2A-F BFAF | F2A-F "A"E-FD2 | "D"F-AA2 BAFA | "A"BABd "D"e-dd-A :|
|: "D"d-cd-A BAFA | d-cd-e "A"fgfe | "D"d-cd-A BAFA | "A"G2F2 "D"E2D-A |
   "D"d-cd-A BAFA | d-cd-e "A"fgfe | "D"d-cd-A BAFA |\
  [1 "A"G2F2 "D"E2D-A :|[2  "A"G2F-G "D"E-FD-E |]
N:http://www.thesession.org/tunes/display/68 adapted by Peter Ostapenko.
N:Last update - PO 2/24/2008.
N:D Major
